X:3
T:L\"andler  G 2+
%%MIDI program 21
R:
M:3/4
L:1/8
K:G %%MIDI gchordon
ba |: "G"gB dg Bg | "D7"fA df ag | fA cf Af | "G"gB dg ba | gB dg Bg | 
"D7"fA cf ag | fA df Af |1 "G"g2z2ba :|2 "G"g2z2z2 |: "D7"d3a ^ga | "G"b3g dB | 
"D7"ag fA df | "G"gB dgb2 | "D7"d3a ^ga | "G"b3g dB | "D7"ag fA df | "G"g2z2z2 :| 
% LD05891

